X:7205
T:The Pidgeon on the Gate
O:england
M:C|
L:1/8
R:Reel
B:Matt Cranich's Fiddle Book
K:EDor
dc|BEE2 BdcA|BEE2 dBAF|D2 (3FED ADFD|FAAc BAFA|BEE2 BdcA|BEE2 dBAF|\
DEFA B3d|AFdF E2::FA|Beed efed|Bdef gfed|Bddc d2dB|AFF2 DEFA|Beed efed|\
(3Bcd efg2 ef|g3e f3e|dBAF E2:|


